!!!COM: Dunstable, John
!!!OTL: Beata Dei Genitrix
!!!ONM: No. 41
!!!YOR: from: "Musica Britannica" Vol. 8, edited by Manfred F. Bukofzer,
!!!YOR: 2nd rev. ed. (prepared by Margaret Bent, Ian Bent & Brian Trowell), pp.108-109
!!!YOO: Royal Musical Association (London)
!!!YOY: 1970
**kern	**kern	**kern
*ICvox	*ICvox	*ICvox
! tenor	! contratenor	! discantus
*M3/4	*M3/4	*M3/4
=1	=1	=1
*>A	*>A	*>A
!! Section 'A'; (O) mensuration.
[2.B-	[2.BB-	[2.B-
=2	=2	=2
2.B-]	2.BB-]	2B-]
.	.	4d
=3	=3	=3
2.A	2.C	4e-
.	.	2c
=4	=4	=4
2.B-	[2.BB-	4d
.	.	4.g
.	.	8f
=5	=5	=5
[2.F	2.BB-]	4f
.	.	8d
.	.	8d
.	.	8c
.	.	8B-
=6	=6	=6
2.F]	2r	8A
.	.	8B-
.	.	8c
.	.	4B-
.	4D	.
.	.	8A
=7	=7	=7
[2.BB-	[2.F	4B-
.	.	4r
.	.	4d
=8	=8	=8
2.BB-_	2F]	8d
.	.	8e-
.	.	4f
.	4B-	8d
.	.	8f
=9	=9	=9
2.BB-_	4B-	8g
.	.	8e-
.	8G	4g
.	4B-	.
.	.	8f
.	8A	[8d
=10	=10	=10
2.BB-]	4F	8d]
.	.	16c
.	.	16d
.	4G	8e-
.	.	8d
.	8F	8c
.	8D	16d
.	.	16B-
=11	=11	=11
[2.C	2E-	8.A
.	.	16B-
.	.	8c
.	.	8d
.	4G	8e-
.	.	8d
=12	=12	=12
2.C]	4F	8c
.	.	8B-
.	4.E-	8B-
.	.	16A
.	.	16B-
.	.	8A
.	8D	8G
=13	=13	=13
[2.BB-	2.F	2.B-
=14	=14	=14
2.BB-]	2.B-	2r
.	.	4B-
=15	=15	=15
[2.F	2c	2A
.	4A	4d
=16	=16	=16
4F]	4F	4f
2G	2B-	4.e-
.	.	8d
=17	=17	=17
[2.F	2c	2f
.	4A	8d
.	.	8c
=18	=18	=18
2.F]	4F	4c
.	2A	4r
.	.	4f
=19	=19	=19
[2.C	4G	2.g
.	[2c	.
=20	=20	=20
2.C]	2c]	4g
.	.	4f
.	4G	8e-
.	.	8d
=21	=21	=21
2.F	4.A	4d
.	.	8c
.	4D	8A
.	.	8B-
.	8A	[8c
=22	=22	=22
2.E-	8G	8c]
.	4B-	8d
.	.	8e-
.	8A	8c
.	4G	8c
.	.	8B-
=23	=23	=23
[2.D	[2.A	2.d
=24	=24	=24
2.D]	4A]	2r
.	2B-	.
.	.	4f
=25	=25	=25
2.C	4c	4.g
.	4G	.
.	.	4e-
.	4A	.
.	.	[8g
=26	=26	=26
2.BB-	2.B-	8g]
.	.	8f
.	.	8d
.	.	8e-
.	.	8f
.	.	8e-
=27	=27	=27
2.E-	2.G	4c
.	.	8e-
.	.	8d
.	.	8c
.	.	8B-
=28	=28	=28
2F	[2.D	2A
4A	.	4F
=29	=29	=29
4B-	4D]	2r
2c	2C	.
.	.	8g
.	.	8f
=30	=30	=30
4A	2c	2f
2G	.	.
.	4Bn	8enx
.	.	8d
=31	=31	=31
[2.F	2.c	4.f
.	.	16e-
.	.	16f
.	.	8e-
.	.	8d
=32	=32	=32
2.F]	2.r	4d
.	.	4c
.	.	8B-
.	.	8A
=33	=33	=33
2r	2c	2.A
4F	4A	.
=34	=34	=34
2.BB-	4B-	2r
.	4.G	.
.	.	4f
.	8F	.
=35	=35	=35
2.F	4F	4f
.	2BB-	4.d
.	.	8c
=36	=36	=36
2r	4F	2.c
.	2A	.
4F	.	.
=37	=37	=37
2.BB-	4.B-	2r
.	16A	.
.	16B-	.
.	8G	4f
.	8F	.
=38	=38	=38
2.F	4F	4f
.	2BB-	4.d
.	.	8c
=39	=39	=39
2r	2F	4c
.	.	8d
.	.	4f
4BB-	4B-	.
.	.	8e-
=40	=40	=40
4F	4A	8c
.	.	4f
2G	8G	.
.	4B-	8e-
.	.	8e-
.	8G	8d
=41	=41	=41
4F	8A	8.f
.	16G	.
.	16A	16e-
[2BB-	8B-	8f
.	8F	4d
.	4G	.
.	.	8B-
=42	=42	=42
2BB-]	8F	8d
.	2B-	8e-
.	.	4g
4BB-	.	8f
.	8G	[8d
=43	=43	=43
4D	4F	8d]
.	.	8B-
4E-	4C	8c
.	.	8e-
4F	[4BB-	8d
.	.	[8f
=44	=44	=44
4.G	4BB-]	8f]
.	.	8d
.	8E-	8e-
8F	8F	8d
8E-	8G	8c
8D	[8F	16d
.	.	16B-
=45	=45	=45
4F	8F]	8A
.	8D	8B-
8E-	4.G	4c
4C	.	.
.	.	8A
8D	8F	[8B-
=46	=46	=46
4E-	8E-	8B-]
.	8C	8G
8D	8D	12F
.	.	12G
8BB-	4F	.
.	.	12B-
4C	.	6A
.	8Enx	.
.	.	12G
=47	=47	=47
[2.BB-	[2.F	[2.B-
=47a	=47a	=47a
2.BB-]	2.F]	2.B-]
=48	=48	=48
*>B1	*>B1	*>B1
!! Section 'B1'; (C) mensuration.
*M2/2	*M2/2	*M2/2
[1BB-	2.F	2.f
.	[4B-	4d
=49	=49	=49
1BB-]	4B-]	4f
.	4G	4.g
.	2B-	.
.	.	8f
.	.	4f
=50	=50	=50
[1C	4A	4e-
.	2G	4c
.	.	4r
.	4c	[4g
=51	=51	=51
1C]	4.c	8g]
.	.	8f
.	.	4g
.	8B-	.
.	8A	4e-
.	8G	.
.	4G	[4c
=52	=52	=52
2F	4F	4c]
.	4D	4f
2G	2C	4e-
.	.	[4g
=53	=53	=53
1B-	1BB-	8g]
.	.	8f
.	.	4.f
.	.	8e-
.	.	8d
.	.	8c
=54	=54	=54
1A	1F	1c
=55	=55	=55
[1G	1C	4r
.	.	4.e-
.	.	8f
.	.	[4g
=56	=56	=56
1G]	4r	8g]
.	.	8e-
.	4G	4.f
.	2B-	.
.	.	8enx
.	.	8enx
.	.	8d
=57	=57	=57
1F	4c	2f
.	2A	.
.	.	4r
.	4F	4d
=58	=58	=58
1G	1C	4e-
.	.	4.g
.	.	8f
.	.	8e-
.	.	8d
=59	=59	=59
1F	4r	4d
.	4F	4c
.	2A	4A
.	.	4d
=60	=60	=60
1E-	4G	4e-
.	2G	4c
.	.	4c
.	4F	8B-
.	.	8c
=61	=61	=61
1D	2A	2d
.	4B-	2r
.	[4A	.
=62	=62	=62
1F	4A]	2c
.	4F	.
.	4r	4d
.	4A	[4f
=63	=63	=63
1BB-	2B-	4f]
.	.	2d
.	[2F	.
.	.	4B-
=64	=64	=64
4r	2F]	2A
4F	.	.
2F	2BB-	4r
.	.	[4f
=65	=65	=65
1BB-	4r	8f]
.	.	16e-
.	.	16f
.	4B-	4g
.	2B-	4f
.	.	4d
=66	=66	=66
4r	2F	2c
4r	.	.
2F	2D	4r
.	.	4d
=67	=67	=67
2G	2C	4.e-
.	.	8d
2F	4r	2f
.	4A	.
=68	=68	=68
4r	2B-	2d
4BB-	.	.
2BB-	2F	4r
.	.	[4f
=69	=69	=69
2F	4r	4f]
.	4A	4d
4r	2A	2c
4F	.	.
=70	=70	=70
1BB-	2B-	4r
.	.	4f
.	4F	4d
.	4G	4B-
=71	=71	=71
4r	2A	2c
4AA	.	.
[2BB-	2F	4r
.	.	4d
=72	=72	=72
2BB-]	4r	2f
.	4B-	.
4r	4G	4e-
4AA	4A	4c
=73	=73	=73
4BB-	4G	4d
4AA	4A	4c
4BB-	[2F	2d
[4D	.	.
=74	=74	=74
4D]	2F]	4B-
4F	.	4A
4G	4E-	4B-
4E-	4C	[4c
=75	=75	=75
2F	4r	4c]
.	4BB-	4.d
4BB-	2F	.
.	.	8c
[4D	.	8B-
.	.	8A
=76	=76	=76
4D]	4D	8A
.	.	8B-
4E-	4C	4c
2C	2E-	8B-
.	.	4A
.	.	8G
=77	=77	=77
[1BB-	2F	1B-
.	4G	.
.	[4B-	.
=78	=78	=78
*>B2	*>B2	*>B2
!! Section 'B2'; (C) mensuration.
1BB-]	4B-]	1r
.	4F	.
.	4G	.
.	4F	.
=79	=79	=79
2B-	2D	1r
4A	4F	.
[4c	4E-	.
=80	=80	=80
4c]	2C	1r
4A	.	.
4F	4F	.
4A	[4F	.
=81	=81	=81
2G	4F]	1r
.	4Enx	.
4r	2F	.
4F	.	.
=82	=82	=82
4G	4r	1r
4E-	4G	.
2F	4A	.
.	[4d	.
=83	=83	=83
2C	8d]	2r
.	8c	.
.	2c	.
*>B3	*>B3	*>B3
!! Section 'B3'; (C) mensuration.
2D	.	2f
.	4Bnx	.
=84	=84	=84
1C	1c	4e-
.	.	4.g
.	.	8f
.	.	8e-
.	.	8d
=85	=85	=85
2F	2A	4d
.	.	8c
.	.	4f
2G	4r	.
.	.	8d
.	4B-	8e-
.	.	8f
=86	=86	=86
4B-	4G	4g
4A	4c	8enx
.	.	4f
2G	2B-	.
.	.	8enx
.	.	8enx
.	.	8d
=87	=87	=87
1F	2c	2f
.	4A	4r
.	[4F	4c
=88	=88	=88
[1BB-	4F]	2.d
.	2B-	.
.	4F	4B-
=89	=89	=89
1BB-]	4G	4r
.	2B-	4.f
.	.	8e-
.	4G	[4d
=90	=90	=90
2F	4A	8d]
.	.	8c
.	4F	8d
.	.	16c
.	.	16d
2E-	2G	8e-
.	.	8d
.	.	8c
.	.	16d
.	.	16B-
=91	=91	=91
2F	4r	8A
.	.	8B-
.	4F	8c
.	.	8A
2C	2Enx	8B-
.	.	4A
.	.	8G
=92	=92	=92
[1BB-	1F	2B-
.	.	2r
=93	=93	=93
1BB-]	1r	2.d
.	.	[4f
=94	=94	=94
1B-	1BB-	4f]
.	.	4.g
.	.	8f
.	.	[4f
=95	=95	=95
1A	1F	4f]
.	.	2c
.	.	4f
=96	=96	=96
1G	4r	4g
.	4G	4d
.	2B-	4enx
.	.	8d
.	.	8enx
=97	=97	=97
2F	4A	2f
.	2c	.
2C	.	4e-
.	[4G	[4c
=98	=98	=98
4E-	4G]	4c]
4F	4F	4d
2G	4E-	4B-
.	4C	4e-
=99	=99	=99
4B-	2.D	4d
4A	.	4.f
[2F	.	.
.	.	8e-
.	[4A	8d
.	.	8c
=100	=100	=100
4F]	4A]	4d
4E-	2G	2c
2D	.	.
.	4F	4Bnx
=101	=101	=101
1C	1G	1c
=102	=102	=102
*>C	*>C	*>C
!! Section 'C'; (O) mensuration.
*M3/4	*M3/4	*M3/4
2.c	2.C	2c
.	.	4e-
=103	=103	=103
2B-	2G	4d
.	.	4.g
4F	4c	.
.	.	8f
=104	=104	=104
4A	2c	2f
2G	.	.
.	4B-	4enx
=105	=105	=105
2.F	[2.c	2f
.	.	4d
=106	=106	=106
2.C	2c]	4r
.	.	4.g
.	4G	.
.	.	8f
=107	=107	=107
2F	2A	4f
.	.	8d
.	.	8d
[4G	4G	8e-
.	.	8d
=108	=108	=108
4G]	4E-	4B-
4F	8F	8A
.	8A	4c
4E-	4G	.
.	.	8B-
=109	=109	=109
4D	8F	4B-
.	4F	.
2C	.	4.A
.	8Enx	.
.	8Enx	.
.	8D	8G
=110	=110	=110
[2.BB-	[2.F	2.B-
=111	=111	=111
2.BB-]	2.F]	2r
.	.	4d
=112	=112	=112
[2.B-	[2.BB-	4f
.	.	4.g
.	.	8f
=113	=113	=113
2.B-]	2.BB-]	4f
.	.	4d
.	.	8d
.	.	8B-
=114	=114	=114
2B-	2E-	4B-
.	.	4r
4E-	4B-	4e-
=115	=115	=115
4G	2B-	4.e-
2F	.	.
.	.	4d
.	4A	.
.	.	8c
=116	=116	=116
[2.E-	4.B-	2.e-
.	4c	.
.	[8G	.
=117	=117	=117
2.E-]	8G]	4r
.	8B-	.
.	8c	4.g
.	8B-	.
.	8G	.
.	8A	8f
=118	=118	=118
[2.BB-	2B-	4f
.	.	8d
.	.	8d
.	8G	8B-
.	8F	8c
=119	=119	=119
2.BB-]	2F	4d
.	.	8B-
.	.	8d
.	4D	8e-
.	.	[8f
=120	=120	=120
4D	4r	8f]
.	.	8d
4E-	4C	8c
.	.	8e-
4F	[4BB-	8d
.	.	[8f
=121	=121	=121
4.G	4BB-]	8f]
.	.	8d
.	8E-	8e-
8F	8BB-	8d
8E-	8E-	8c
8D	8F	8B-
=122	=122	=122
4F	8D	4A
.	8F	.
8E-	4.G	8B-
8C	.	8.c
4E-	.	.
.	.	16d
.	8E-	8e-
=123	=123	=123
4F	8BB-	8d
.	2F	8A
8BB-	.	8B-
8D	.	4A
4C	.	.
.	8Enx	8G
=124	=124	=124
[2.BB-	[2.F	[2.B-
=125	=125	=125
2.BB-]	2.F]	2.B-]
==	==	==
*-	*-	*-
!!!ENC: Mark Laxton
!!!EDD: Mark Laxton
!!!YEC: Mark Laxton, 1987
!!!EMD: Reference records added by D. Huron, 2001
!!!EEV: 1.1
